X: 84
T:West Kirkton
M:6/8
L:1/8
C:John McGregor
R:Jig
K:F
C|"F"F3 C3|"F"A3 F3|"F"c3 AFA|"F"f2 e d2 c|"Gm"B3 D^CD|!
"Gm"d3 G^FG|"Gm"bag fed|"C"cdc BAG|"F"F3 C3|"F"A3 F3|c3 AFA|!
"F"f2 e d2 c|"Gm"B2 B Bcd|"Gm"G2 G GAB|"C"g<BG B G name="D1X085" <A % f2 z|| ?C7?ece|?F?f3 GAB|?C?g<bg Bcd|?Gm?G2 d3|?Gm?B2 b fef|?Gm?b2 ?F?FAc fef|! AFA|?F?cAc ?C7?BAG|?F?FCF fed|?C?cdc C3|?C?bag ?C?BGE cBG|! d3|?C?bge fef|?F?FAc ?F?FCF C||!></A>

